icons/solid/globe-alt.svg

<svg width="24" height="24" viewBox="0 0 24 24" fill="none" xmlns="http://www.w3.org/2000/svg">
<path d="M21.7214 12.7517C21.7404 12.5036 21.75 12.2529 21.75 11.9999C21.75 10.4758 21.4003 9.03328 20.7767 7.74835C19.5396 8.92269 18.0671 9.85146 16.4374 10.4565C16.4789 10.9655 16.5 11.4803 16.5 11.9999C16.5 13.1011 16.4051 14.1802 16.2229 15.2293C18.2163 14.7277 20.0717 13.8792 21.7214 12.7517Z" fill="#0F172A"/>
<path d="M14.6343 15.5501C14.874 14.4043 15 13.2168 15 11.9999C15 11.6315 14.9885 11.2659 14.9657 10.9032C14.0141 11.1299 13.021 11.2499 12 11.2499C10.979 11.2499 9.98594 11.1299 9.0343 10.9032C9.01155 11.2659 9 11.6315 9 11.9999C9 13.2168 9.12601 14.4043 9.3657 15.5501C10.2246 15.6817 11.1043 15.7499 12 15.7499C12.8957 15.7499 13.7754 15.6817 14.6343 15.5501Z" fill="#0F172A"/>
<path d="M9.77224 17.119C10.5028 17.2054 11.2462 17.2499 12 17.2499C12.7538 17.2499 13.4972 17.2054 14.2278 17.119C13.714 18.7746 12.9575 20.3235 12 21.724C11.0425 20.3235 10.286 18.7746 9.77224 17.119Z" fill="#0F172A"/>
<path d="M7.77706 15.2293C7.59493 14.1802 7.5 13.1011 7.5 11.9999C7.5 11.4803 7.52114 10.9655 7.56261 10.4565C5.93286 9.85146 4.46039 8.92269 3.22333 7.74835C2.59973 9.03328 2.25 10.4758 2.25 11.9999C2.25 12.2529 2.25964 12.5036 2.27856 12.7517C3.92826 13.8792 5.78374 14.7277 7.77706 15.2293Z" fill="#0F172A"/>
<path d="M21.3561 14.7525C20.3404 18.2104 17.4597 20.8705 13.8776 21.5693C14.744 20.1123 15.4185 18.5278 15.8664 16.8508C17.8263 16.44 19.6736 15.7231 21.3561 14.7525Z" fill="#0F172A"/>
<path d="M2.64395 14.7525C4.32642 15.7231 6.17372 16.44 8.13356 16.8508C8.58146 18.5278 9.25602 20.1123 10.1224 21.5693C6.54027 20.8705 3.65964 18.2104 2.64395 14.7525Z" fill="#0F172A"/>
<path d="M13.8776 2.43055C16.3991 2.92245 18.5731 4.3862 19.9937 6.41599C18.9351 7.48484 17.6637 8.34251 16.2483 8.92017C15.862 6.58282 15.0435 4.39132 13.8776 2.43055Z" fill="#0F172A"/>
<path d="M12 2.27588C13.4287 4.36548 14.4097 6.78537 14.805 9.39744C13.9083 9.62756 12.9684 9.74993 12 9.74993C11.0316 9.74993 10.0917 9.62756 9.19503 9.39744C9.5903 6.78537 10.5713 4.36548 12 2.27588Z" fill="#0F172A"/>
<path d="M10.1224 2.43055C8.95648 4.39132 8.13795 6.58282 7.75171 8.92017C6.33629 8.34251 5.06489 7.48484 4.00635 6.41599C5.42689 4.3862 7.60085 2.92245 10.1224 2.43055Z" fill="#0F172A"/>
</svg>

<svg xmlns="http://www.w3.org/2000/svg" viewBox="0 0 24 24" fill="currentColor" aria-hidden="true" data-slot="icon">
  <path d="M21.721 12.752a9.711 9.711 0 0 0-.945-5.003 12.754 12.754 0 0 1-4.339 2.708 18.991 18.991 0 0 1-.214 4.772 17.165 17.165 0 0 0 5.498-2.477ZM14.634 15.55a17.324 17.324 0 0 0 .332-4.647c-.952.227-1.945.347-2.966.347-1.021 0-2.014-.12-2.966-.347a17.515 17.515 0 0 0 .332 4.647 17.385 17.385 0 0 0 5.268 0ZM9.772 17.119a18.963 18.963 0 0 0 4.456 0A17.182 17.182 0 0 1 12 21.724a17.18 17.18 0 0 1-2.228-4.605ZM7.777 15.23a18.87 18.87 0 0 1-.214-4.774 12.753 12.753 0 0 1-4.34-2.708 9.711 9.711 0 0 0-.944 5.004 17.165 17.165 0 0 0 5.498 2.477ZM21.356 14.752a9.765 9.765 0 0 1-7.478 6.817 18.64 18.64 0 0 0 1.988-4.718 18.627 18.627 0 0 0 5.49-2.098ZM2.644 14.752c1.682.971 3.53 1.688 5.49 2.099a18.64 18.64 0 0 0 1.988 4.718 9.765 9.765 0 0 1-7.478-6.816ZM13.878 2.43a9.755 9.755 0 0 1 6.116 3.986 11.267 11.267 0 0 1-3.746 2.504 18.63 18.63 0 0 0-2.37-6.49ZM12 2.276a17.152 17.152 0 0 1 2.805 7.121c-.897.23-1.837.353-2.805.353-.968 0-1.908-.122-2.805-.353A17.151 17.151 0 0 1 12 2.276ZM10.122 2.43a18.629 18.629 0 0 0-2.37 6.49 11.266 11.266 0 0 1-3.746-2.504 9.754 9.754 0 0 1 6.116-3.985Z"/>
</svg>
